X:1
T:Khvalitye imya Gospodie
T:Сергeй Рахманинов, 1915
T:Хвалите имя Господне
T:Всенощное бдение, Op. 37, No. 8
T:Public Domain
T:Public Domain
T:Public Domain
T:Public Domain
T:Public Domain
T:Public Domain
T:Public Domain
T:Public Domain
T:Public Domain
C:Sergei Rakhmanninov
Z:Public Domain
%%score [ ( 1 2 3 ) ( 4 5 ) ( 6 7 ) ( 8 9 ) ]
L:1/8
M:4/4
K:Ab
V:1 treble nm="Сопрано" snm="С."
V:2 treble 
V:3 treble 
V:4 treble nm="Альтъ" snm="А."
V:5 treble 
V:6 treble-8 nm="Теноръ" snm="Т."
V:7 treble-8 
V:8 bass nm="Басъ" snm="Б."
V:9 bass 
V:1
"^Не скоро (Not fast)" z2"^Hva_li_te    i  ______   mÔ     Gos  _ pod   _____________  ne.                        Al _li _\nKhva– li– tye    i       –    –      mya     Gos   –  pod    –      –      –      –       nye.                                Al  –  li –"!p! !tenuto![ce]2 !tenuto![ce]2 !tenuto![ce]2 | %1
 [ce][df][ce][Bd] [Ac][GB] [Ac][Bd] | !tenuto![ce]8 |[M:6/4] !tenuto![ce]8 !tenuto!e2 !tenuto!e2 | %4
[M:4/4]"^__ luŸ  _________________ i ___ a.   Hva __ li ____ te,   ra ____ bi,           Gos_po _____ da.\n –   lu     –      –      –     –     –     i   –    a.    Khva –   li     –     tye,   ra    –     bi,            Gos – po    –     da." e8- | %5
 e2 e2 eB [Ac][Bd] |!p! !tenuto!e4 !tenuto!e2 !tenuto!e2 | %7
[M:6/4] !tenuto!e4 (!tenuto!e2!<(! !tenuto!e2) f[ce]!>(! [Bd]2!<)!!>)! | %8
[M:4/4]"^Al _ li _luŸ  _________ i ___ a,                         al ______ li ___luŸ_i _a.\n Al  –   li   – lu      –      –      –      i     –    a,                                  al         –         li     –     lu  – i  – a."!<(! !tenuto![ce]2 !tenuto![df]2!f! ([eg]2 [df])!>(![ce]!<)!!>)! | %9
 f2 e2!p! ([ce]B[Ac][Bd] | [ce]2) [ce][df][ce][Bd] [Ac][GB] | [Ac][Bd]!pp! [c-e]6 | [ce-]8 | %13
"^__" [ce]2 z2 z4 | z8 | z8 | z8 | z8 | %18
!p!"^Мягко, певуче""^Al_li_luŸ  _______  i ___a,               al _ li _ luŸ ________ i _______ a                  Is __ po __  \n     Al  – li  – lu       –      –         i    –   a.                      al  –  li   –   lu      –      –         i      –      –      a                         Is    –   po  –" c2 d2 ((c4 | %19
 Bc)) cB A4 | %20
[M:6/4]!p!"^Прежний харакер" !tenuto![ce]2 !tenuto![ce][df] (!tenuto![ce][Ac][Bd][ce] [df]2) !tenuto!e2 | %21
[M:4/4]!p! !tenuto![ce]4 !tenuto![ce]2 !tenuto![ce]2 | %22
"^_ve ___ daŸ _ te ___ sÔ                                      Goc _____ po _ de ___ vi,    Ô ___________ ko\n  –ve     –    dai   –  te    –     cya                                                Gos       –       po  – de     –    vi,       ya     –      –      –    ko" !tenuto!e4 !tenuto![ce]2 !tenuto![ce]2 | %23
 (!tenuto![df]!>(! [ce]2 [Bd]!<(! [ce]2 [df]2)!>)!!<)! |!mf! [e_g]4 [df]2 [ce]2 | %25
 [df]2!f! !>![eg]3 [fa]!>(! [eg]2!>)! | %26
"^Blag.                             Al _ li _ luŸ  _  i _a,         al ___ li ___ luŸ _i _a.                   Is _po _  \n   Blag.                                          Al   –  li   –   lu     –    i – a.             al     –     li      –     lu  –   i – a.                           Is  – po  –" (f4 d2 [ce][Bd]) | %27
!p! e2 f2 e2 ee |[M:6/4] e2 e2 eB ([Ac][Bd] [ce]2)!mf! [de][de] | %29
[M:4/4]"^ve _________ daŸ _ te_sÔ   Bo _____ gu     Ne __ bes _ no _ mu. Al_li _luŸ _____ i ____a,  \n   ve      –      –         dai  –  te –cya   Bo      –       gu        Nye  –  bes  –  no – mu.  Al – li  –  lu      –      –   i      –    a," !tenuto![ce]4 !tenuto![ce]2 [ce][ce] | %30
 !tenuto!e4 ec!<(! [Bd][ce]!<)! |!>(! [df][ce] [Bd]2 [ce]2!f! ff!>)! | _g4 f2 e2 | %33
"^Al _________________ li __luŸ _ i ___a,                al _ li _ luŸ ___________ i ___ a,  \n   Al       –      –      –       –      –      li   –   lu    –   i    –    a,                      al  –  li   –   lu      –      –      –          i     –    a," (f2 !>!g2!ff! a3) g | %34
!>(! f2 [ef]2 ([df]2 [ce][Bd])!>)! | %35
!<(! !tenuto![ce]2 !tenuto![df]2!f! ([eg]2!>(! [df][ce]!<)!!>)! | [df]2) e2!p! (eB[Ac][Bd] | %37
"^__  al ____ li __luŸ_i _a,                                           al_li_luŸ _______ i ___ a.\n   ___  Al       –      li   –   lu  –  i – a,                                                          al –  li  –  lu     –      –       i     –    a." [ce]2) [ce][df][ce][Bd]!>(! [Ac][GB]!>)! | %38
 [Ac][Bd]!pp! [c-e]6 | [ce-]4 [ce] z!p! z2 |"^Певуче"!<(! c2 d2!>(! (!tenuto!c4!<)!!>)! | %41
"^Задерживня" B!p!c)!>(! cB!pp! A4-!>)! | !fermata!A8 |] %43
V:2
 x2 A2 A2 A2 | A4 E2 A2 | A8 |[M:6/4] A8 [GB]2 [FA][GB] |[M:4/4] (c2 d2) c2 BA | dc d2 c2 x2 | %6
 c4 c2 c2 |[M:6/4] (A B2) c c2 Bc d2 F2 |[M:4/4] G2 G2 (c4 | [Bd]2) [FA][GB] A4- | A2 A4 E2 | %11
 AA A6- | A8- | A2 x6 | x8 | x8 | x8 | x8 | c2 d2 c4 | Bc cB A4 |[M:6/4] A2 A2 A4- A2 G2 | %21
[M:4/4] A4 G2 G2 | ([FA]2 [GB]2) [Ac]2 [Ac]2 | x8 | x8 | x8 | ([df]2 [ce]2 B4) | %27
 [Ac]2 [Ad]2 [Ac]2 [GB][FA] |[M:6/4] G2 [Gd]2 [Ac]A A2- A2 GG |[M:4/4] A4 G2 GG | %30
 ([FA]2 [GB]2) [Ac]2 Ac | B2 B2 A2 dd | e4 d2 c2 | d2 e2 f3 e | d2 c2 B4 | G2 G2 (c4 | %36
 B2) [FA][GB] A4- | A2 A4 E2 | AA A6- | A4- A x x2 | x8 | x8 | x8 |] %43
V:3
 x8 | x8 | x8 |[M:6/4] x12 |[M:4/4] A6 GF | G2 G2 A2 A2 | A4 A2 G2 |[M:6/4] F4 F2 (GA B2) x2 | %8
[M:4/4] x8 | x8 | x8 | x8 | x8 | x8 | x8 | x8 | x8 | x8 | x8 | x8 |[M:6/4] x2 x2 x2 x2 x2 Bd | %21
[M:4/4] x8 | x8 | B4 c2 d2 | x8 | x8 | x8 | x8 |[M:6/4] x12 |[M:4/4] x8 | x8 | x8 | x8 | x8 | x8 | %35
 x8 | x8 | x8 | x8 | x8 | x8 | x8 | x8 |] %43
V:4
 z8 | %1
 z4 z2 z"^Hva_li_te   i _mÔ  Gos  _  pod     ___  ne.\nKhva–li – tye   i –mya  Gos  –   pod     –      nye.""^*\nÔrko, s tverbìm, dobrìm rutmom.\n* bright, with a strong, solid rhthym" B | %2
 c2 c2 c2 cB |[M:6/4] (c2 B2 A) (ABc !tenuto!B4) | %4
[M:4/4]"^Al _ li _ luŸ  _________ i ___ a.         Hva_li_te, ra_bi,              Gos _____po ____ da.\nAl   –   li   –   lu       –      –      –      i     –    a.            Khva– li – tye, ra – bi,                    Gos      –       po      –     da." c2 d2 (c4 | %5
 Bc) cB A3 B |!f! c2 cc c4 |[M:6/4] (c B2 A) (A2 Bc) !tenuto!B4 | %8
[M:4/4]"^Al _ li _luŸ  _________ i ___ a,                                                                      al _ li _ luŸ __i __\n Al  –  li  –  lu      –      –      –       i     –    a,                                                                                               al   –  li   –  lu   –   i   –" c2 d2 (c4 | %9
 Bc) cB!f!!>(! !tenuto!A4-!>)! | A8- |!p! A2 z2!f! !tenuto!E2 !tenuto!E2 | !tenuto!E4 !tenuto!E4 | %13
"^__ a,                                                                  al_li_luŸ_i ____a.\n –    a,                                                                                        al  – li   –  lu – i     –    a."!>(! !tenuto!E8-!>)! | %14
 E8 |!p!!<(! !tenuto!E2 !tenuto!E2!mf! !tenuto!F2!>(! !tenuto!F2!<)!!>)! |!p! x8 | E2 F2 G4 | %18
!p!"^Al_li_luŸ  _______  i ___a.                                                       Is_po _ve-daŸ-te-sÔ  Go-spo-de-vi,\n     Al  – li  – lu       –      –         i    –   a.                                                                           Is – po – ve –dai-te-cya  Go-spo-de–vi" A2 F2 (A2 E2 | %19
 _G2) F2 ((F2 C2- |[M:6/4] C6)) z2 z2!f! BB |[M:4/4] cccc cccB | %22
"^Ô _______ ko        Blag.                      Al_li_luŸ _ i_a,  al-li-luŸ-i-a.     Â ________ ko  v  vek\n   ya       –         ko            Blag.                                Al – li  –  lu  –   i – a,   al–li– lu – i –  a.       Ya      –      –     ko   v   vek" B2 B2 A ABc | %23
 B4- B z AA | B2 BB BBcc | B2!<(! B/c/d- dd d/c/B!<)! | %26
"^mi_lostÝ E_go.              Al _ li __ luŸ  _______________ i _____a.                               Is _po _  \n   mi – lost'   Ye–vo.                   Al   –   li    –    lu     –      –      –        –      –   i      –       a.                                           Is  – po  –" !>!d2 cc B4 | %27
!f! c2 d2 (c4 |[M:6/4] Bc) cB A4- A z!f! BB | %29
[M:4/4]"^ve_daŸ_te_sÔ Bo _ gu  Ne _ bes ______ no _____ mu.                   Al-li _luŸ _i _a, al-li-luŸ-i_ \n   ve– dai –te–cya Bo –  gu  Nye  – bes    –     –    no      –       mu.                          Al – li   –  lu –   i  – a, al – li –lu –i–" cccc c2 cB | %30
 (c2 B2 A) ABc | B4 z2!f! AA | B2 BB BBcc | %33
"^__a.     Â _______  ko   v  vek    mi-lostÝ E_go.           Al _ li _ luŸ ___________ i ___ a,  \n  –   a.      Ya      –      –     ko    v  vek      mi – lost '  Ye–vo.              Al   –   li   –  lu      –      –      –          i     –    a," B2!ff! B/c/d- dd d/c/B | %34
 !>!d2 cc B4 | c2 d2 (c4 | Bc) cB!f! A4- | %37
"^__                                           Al_li_luŸ _ i ____a,\n   __                                                           Al –  li – lu   –    i    –      a,"!>(! A8-!>)! | %38
 A2 z2 !tenuto!E2 !tenuto!E2 | E4!>(! EFE z!>)! |!p!!<(! A2 F2!>(! !tenuto![FA]2 E2!<)!!>)! | %41
 [E_G]2!>(! F2 F2 ED!>)! | !tenuto!!fermata!E8 |] %43
V:5
 x8 | x8 | x8 |[M:6/4] x12 |[M:4/4] x8 | x8 | x8 |[M:6/4] x12 |[M:4/4] x8 | x8 | x8 | x8 | x8 | %13
 x8 | x8 | x8 | E8- | E8 | A2 F2 A2 E2- | E2 ED F2 C2- |[M:6/4] C6 x2 x4 |[M:4/4] x8 | x8 | x8 | %24
 x8 | x8 | x8 | x8 |[M:6/4] x12 |[M:4/4] x8 | x8 | x8 | x8 | x8 | x8 | x8 | x8 | x8 | x8 | %39
 E4 EF ED | C2 F2 x2 x2 | x2 ED (D2 C2 | C8) |] %43
V:6
 z2!p!"^Hva_li_te    i  ______   mÔ     Gos  _ pod   _____________  ne.                        Al _li _\nKhva– li– tye    i    –    –      mya    Gos  –  pod    –      –      –      –  nye.                        Al –  li –" !tenuto!a2 !tenuto!a2 !tenuto!a2 | %1
 !tenuto!f4 !tenuto!e2 !tenuto!e2 | !tenuto!e8 |[M:6/4] !tenuto!e8 !tenuto!e2 !tenuto!e2 | %4
[M:4/4]"^__ luŸ  _________________ i ___ a.   Hva __ li ____ te,   ra ____ bi,           Gos_po _____ da.\n –   lu     –      –      –     –     –     i   –    a.    Khva –   li     –     tye,   ra    –     bi,            Gos – po    –     da." (e2 f2) e4- | %5
 e2 e2 ed e2 |!p! !tenuto!e4 !tenuto!e2 !tenuto!e2 | %7
[M:6/4] e4 (!tenuto!e2!<(! e2) fe!>(! d2!<)!!>)! | %8
[M:4/4]"^Al _ li _luŸ  _________ i ___ a,                         al ______ li ___luŸ_i _a.\n Al  –   li   – lu      –      –      –      i     –    a,                                  al         –         li     –     lu  – i  – a."!<(! !tenuto!e2 !tenuto!f2!f! (g2 f!>(!e!<)!!>)! | %9
 f2) e2!p! (edef | e2) a4!>(! e2!>)! | e[de]!pp! e6- | e8- | %13
"^__          Blagosloven GospodÝ ot Si_o __ na, `ivìŸ  vo     I_e_ru_sa_li _______ me.\n___             Blag–o-slo-ven Gospod' ot  Si – o    –   na,  zhiv–iy   vo        I–ye–ru–sa– li     –      –       mye." e2 z2 z!pp! BBB | %14
 cc !tenuto!c2 cB cB | !tenuto!A3 B !tenuto!c3 c | cccB (c2 B2 | A) (ABc B4) | %18
!p!"^Al_li_luŸ  _______  i ___a,               al _ li _ luŸ ________ i _______ a                  Is __ po __  \n     Al  – li  – lu       –      –         i    –   a.                      al  –  li   –   lu      –      –         i      –      –      a                         Is    –   po  –" c2 d2 (c4 | %19
 Bc) cB A4 |[M:6/4] !tenuto!a2 !tenuto!a2 (!tenuto!agfe f2) !tenuto!e2 | %21
[M:4/4]!p! !tenuto!e4 !tenuto!e2 !tenuto!e2 | %22
"^_ve ___ daŸ _ te ___ sÔ                                      Goc _____ po _ de ___ vi,    Ô ___________ ko\n  –ve     –    dai   –  te    –     cya                                                Gos       –       po  – de     –    vi,       ya     –      –      –    ko" e4 e2 e2 | %23
 (!tenuto!f!>(! e2 d!<(! e2!mf! f2)!>)!!<)! | _g4 f2 e2 | f2!f! (!tenuto!g3 a)!>(! g2!>)! | %26
"^Blag.                             Al _ li _ luŸ  _  i _a,         al ___ li ___ luŸ _i _a.                   Is _po _  \n   Blag.                                          Al   –  li   –   lu     –    i – a.             al     –     li      –     lu  –   i – a.                           Is  – po  –" (f6 ef) | %27
!p! e2 f2 e2 ee |[M:6/4] e2 e2 ed (ef e2)!mf! ee | %29
[M:4/4]"^ve _________ daŸ _ te_sÔ   Bo _____ gu     Ne __ bes _ no _ mu. Al_li _luŸ _____ i ____a,  \n   ve      –      –         dai  –  te –cya   Bo      –       gu        Nye  –  bes  –  no – mu.  Al – li  –  lu      –      –   i      –    a," !tenuto!e4 !tenuto!e2 ee | %30
 !tenuto!e4 !tenuto!e2 !tenuto!e2 | !tenuto!f2 !tenuto!f2 e2!f! ff | _g4 f2 e2 | %33
"^Al _________________ li __luŸ _ i ___a,                al _ li _ luŸ ___________ i ___ a,  \n   Al       –      –      –       –      –      li   –   lu    –   i    –    a,                      al  –  li   –   lu      –      –      –          i     –    a," (f2 !>!g2!ff! a3) g | %34
!>(! f2 f2 (f2 ef)!>)! |!<(! !tenuto!e2 !tenuto!f2!f! (g2!>(! fe!<)!!>)! | f2) e2!p! (edef | %37
"^__  al ____ li __luŸ_i _a,                                           al_li_luŸ _______ i ___ a.\n   ___  Al       –      li   –   lu  –  i – a,                                                          al –  li  –  lu     –      –       i     –    a." e2) a4!>(! e2!>)! | %38
 e[de]!pp! e6- | e4- e z z2 |!p!!<(! c2 d2!>(! (!tenuto!c4!<)!!>)! | Bc)!p!!>(! cB (A3!pp! B!>)! | %42
 !fermata!c8) |] %43
V:7
 x2 e2 e2 e2 | edef ed c!p!d | c8 |[M:6/4] c8 d2 cd |[M:4/4] (c2 d2) c2 BA | dc d2 cB cd | %6
 c4 c2 c2 |[M:6/4] c4 c2 (de) dc B2 |[M:4/4] e2 e2 e2 dc | d2 ed cBcd | e2 ed ef ed | cB [Ac-]6 | %12
 [Ac-]8 | [Ac]2 x2 x4 | x8 | x8 | x8 | x8 | c2 A2 (c2 G2) | B2 F2 A4 |[M:6/4] e2 ed e2 fe d2 Bd | %21
[M:4/4] c4 c2 c2 | (c2 d2) c2 c2 | d c2 B c2 d2 | e4 d2 c2 | d2 e3 f e2 | (f2 e2 d2 cd) | %27
 c2 d2 c2 BA |[M:6/4] Bc d2 cB cd c2 dd |[M:4/4] c4 c2 cc | (c2 d2) ce de | fe d2 c2 dd | %32
 e4 d2 c2 | d2 e2 f3 e | f2 e2 (d2 c)d | e2 e2 (e2 dc | d2) ed cBcd | e2 edefed | cB [Ac-]6 | %39
 [A-c]4 [Ac] x x2 | c2 A2 c2 G2 | B2 F2 A3 B | [EA]8 |] %43
V:8
 z8 | %1
 z4 z2 z"^Hva_li_te   i _mÔ  Gos  _  pod     ___  ne.\nKhva–li – tye   i –mya  Gos  –   pod     –      nye.""^*\nÔrko, s tverbìm, dobrìm rutmom.\n* bright, with a strong, solid rhthym" B, | %2
 C2 C2 C2 CB, |[M:6/4] (C2 B,2 A,) (A,B,C !tenuto!B,4) | %4
[M:4/4]"^*Ôrko, s tverdìm, bodrìm rutmom.""^*Zvuk alÝtov i basov doÔ`en bìtÝ pavnoŸ silì.\n* The sound of the altos and basses to be of equal strength.""^Al _ li _ luŸ  _________ i ___ a.         Hva_li_te, ra_bi,             Gos _____po ____ da.\nAl   –   li   –   lu       –      –      –      i     –    a.             Khva– li – tye, ra – bi,                 Gos      –       po      –     da." C2 D2 (C4 | %5
 B,C) CB, A,3 B, |!f! C2 CC C4 |[M:6/4] (C B,2 A,) (A,2 B,C) !tenuto!B,4 | %8
[M:4/4]"^Al _ li _luŸ  _________ i ___ a.\n Al  –  li  –  lu      –      –      –       i     –    a." C2 D2 (C4 | %9
 B,C) CB,!f!!>(! !tenuto!A,4-!>)! | A,8- |!p! A,2 z2 z4 | z8 | z4 z!pp! E,E,E, | %14
 E,E, !tenuto!E,2 E,E, E,2 | !tenuto!F,3 E, !tenuto!E,3 E, | E,E,E,E, (E,4 | F,) (F,2 E,) E,4 | %18
!p!"^Al_li_luŸ  _______  i ___a.                                                       Is_po _ve-daŸ-te-sÔ  Go-spo-de-vi,\n     Al  – li  – lu       –      –         i    –   a.                                                                           Is – po – ve –dai-te-cya  Go-spo-de–vi" F,2 D,2 (F,2 C,2 | %19
 E,2) B,,2 (D,2 ([A,,E,-]2 |[M:6/4] [A,,E,]6)) z2 z2!f! B,B, |[M:4/4] CCCC CCCB, | %22
"^Ô _______ ko        Blag.                      Al_li_luŸ _ i_a,  al-li-luŸ-i-a.     Â ________ ko  v  vek\n   ya       –         ko            Blag.                                Al – li  –  lu  –   i – a,   al–li– lu – i –  a.       Ya      –      –     ko   v   vek" (C2 B,2 A,) A,B,C | %23
 B,4- B, z A,A, | B,2 B,B, B,B,CC | B,2 B,/C/D- DD D/C/B, | %26
"^mi_lostÝ E_go.              Al _ li __ luŸ  _______________ i _____a.                               Is _po _  \n   mi – lost'   Ye–vo.                   Al   –   li    –    lu     –      –      –        –      –   i      –       a.                                           Is  – po  –" !>!D2 CC B,4 | %27
!f! C2 D2 (C4 |[M:6/4] B,C) CB, A,4- A, z!f! B,B, | %29
[M:4/4]"^ve_daŸ_te_sÔ Bo _ gu  Ne _ bes ______ no _____ mu.                   Al-li _luŸ _i _a, al-li-luŸ-i_ \n   ve– dai –te–cya Bo –  gu  Nye  – bes    –     –    no      –       mu.                          Al – li   –  lu –   i  – a, al – li –lu –i–" CCCC C2 CB, | %30
 (C2 B,2 A,) A,B,C | B,4 z2!f! A,A, | B,2 B,B, B,B,CC | %33
"^__a.     Â _______  ko   v  vek    mi-lostÝ E_go.           Al _ li _ luŸ ___________ i ___ a,  \n  –   a.      Ya      –      –     ko    v  vek      mi – lost '  Ye–vo.              Al   –   li   –  lu      –      –      –          i     –    a," B,2!ff! B,/C/(D D)D D/C/B, | %34
 !>!D2 CC B,4 | C2 D2 (C4 | B,C) CB,!f! A,4- |!>(! A,8-!>)! | A,2 z2 z4 |!p! z8 | %40
!<(! F,2 D,2!>(! (!tenuto!F,2 C,2!<)!!>)! | E,2)!p!!>(! B,,2 (D,2!pp! E,2-!>)! | %42
 !fermata![A,,E,]8) |] %43
V:9
 x8 | x8 | x8 |[M:6/4] x12 |[M:4/4] x8 | x8 | x8 |[M:6/4] x12 |[M:4/4] x8 | x8 | x8 | x8 | x8 | %13
 x4 x [G,,B,,][G,,B,,][G,,B,,] | [A,,C,][A,,C,] [A,,C,]2 [A,,C,][G,,B,,] [A,,C,][G,,B,,] | %15
 [F,,A,,]3 [G,,B,,] [A,,C,]3 [A,,C,] | [A,,C,][A,,C,][A,,C,][G,,B,,] ([A,,C,]2 [G,,B,,]2 | %17
 [F,,A,,]) [F,,A,,][G,,B,,][A,,C,] [E,,B,,]4 | x8 | x8 |[M:6/4] x12 |[M:4/4] x8 | x8 | x8 | x8 | %25
 x8 | x8 | x8 |[M:6/4] x12 |[M:4/4] x8 | x8 | x8 | x8 | x8 | x8 | x8 | x8 | x8 | x8 | x8 | x8 | %41
 x8 | x8 |] %43

